X:1
T: Miss Jeanny Williamson's Reel
C:William Marshall
R:Reel
Q: 232
K:F
M:4/4
L:1/8
|:A|F2 AF cF AF|G2 BG dG BG|F2 AF cF AF|BG A1/2B1/2c1/2B1/2 AF FA|
F2 AF cF AF|G2 BG dG BG|F2 AF cF AF|BG A1/2B1/2c1/2B1/2 AF Fe|
fc d1/2c1/2B1/2c1/2 fc af|gd b1/2a1/2g1/2f1/2 gd da|fc d1/2c1/2B1/2c1/2 fc af|fd cB AF Fe|
fc d1/2c1/2B1/2c1/2 fc af|gd b1/2a1/2g1/2f1/2 gd da|fg df cd Ac|BG cB AF F:|
